X:35
T:Barbarini's Tambourine
C:Walsh, c.1735
S:Colin Hume's website,  colinhume.com  - chords can also be printed below the stave.
Q:1/4=120
M:2/4
L:1/8
K:D
P:A
|: f/g/ | "D"ad dd | "G"de "A"ef | "D"{g/}fe/f/ "G"g/f/e/d/ | "A"eA Af/g/ |\
"D"ad dd | "G"de "A7"ef | "D"{g/}fe/f/ "G"g/f/e/d/ | "A7"e3 :|
P:B
|: c/d/ | "A"eA AA | "A"A3 d/e/ | "Bm"fB BB | "Bm"B3 e/f/ | "A/C#"gc cf/g/ | "D"ad dg/a/ |
"G"bg "A"c'a | "Bm"d'c'/b/ "A/C#"ag | "D"{g/}fe/d/ "A"{f/}ed/c/ | "Bm"{e/}dc/B/ "A/C#"AG | "D"Fd "A7"Ec | "D"[Dd]3 :|

